src/topics/icons/crystal.svg

<svg height="256" preserveAspectRatio="xMidYMid" viewBox="0 0 256 256" width="256" xmlns="http://www.w3.org/2000/svg"><path d="m93.365 0-93.365 93.741 34.258 128.376 128.753 33.883 92.989-94.118-33.883-126.494zm-86.589 95.247 124.988-32.754-34.258 124.612z"/></svg>

<?xml version="1.0" encoding="UTF-8" standalone="no"?>
<svg width="256px" height="256px" viewBox="0 0 256 256" version="1.1" xmlns="http://www.w3.org/2000/svg" xmlns:xlink="http://www.w3.org/1999/xlink" preserveAspectRatio="xMidYMid">
    <g>
        <path d="M93.365,0 L0,93.741 L34.258,222.117 L163.011,256 L256,161.882 L222.117,35.388 L93.365,0 Z M6.776,95.247 L131.764,62.493 L97.506,187.105 L6.776,95.247 Z" fill="#000000"></path>
    </g>
</svg>
